img/Combo.svg

<svg width="33" height="32" viewBox="0 0 33 32" fill="none" xmlns="http://www.w3.org/2000/svg">
<g clip-path="url(#clip0_12334_13500)">
<mask id="mask0_12334_13500" style="mask-type:alpha" maskUnits="userSpaceOnUse" x="0" y="0" width="17" height="32">
<rect x="0.5" width="16.4" height="32" fill="#C4C4C4"/>
</mask>
<g mask="url(#mask0_12334_13500)">
<path d="M13.8399 28.8447C13.5891 28.8447 13.3367 28.812 13.0883 28.7454C12.2508 28.5209 11.5641 27.9391 11.2043 27.1491C10.9047 26.4907 10.2184 26.0962 9.50159 26.165C8.63596 26.2467 7.79143 25.9439 7.17854 25.3302C6.56526 24.7163 6.26174 23.8689 6.34495 23.005C6.35906 22.8581 6.34919 22.7138 6.32639 22.5728L2.96057 24.5179C5.69607 28.8587 10.4533 31.7977 15.9 32V28.1057C15.7666 28.1564 15.6368 28.22 15.5168 28.3057C15.0203 28.6603 14.4348 28.8447 13.8399 28.8447Z" fill="#FF7010"/>
<path d="M13.3988 4.41489C12.9085 4.54646 12.507 4.88682 12.2964 5.34917C11.7847 6.47387 10.6085 7.1503 9.38667 7.03085C8.88081 6.98217 8.38589 7.15988 8.02729 7.5192C7.66831 7.87833 7.49058 8.37431 7.5394 8.87987C7.57832 9.28433 7.52397 9.67963 7.40356 10.0499L15.9 14.96V5.13955C15.5194 5.05878 15.1502 4.90827 14.8199 4.67236C14.407 4.37715 13.8886 4.2839 13.3988 4.41489ZM13.5669 10.9151C12.6613 11.4385 11.5032 11.1279 10.9803 10.2214C10.4575 9.31486 10.7677 8.1557 11.6734 7.63232C12.5791 7.10895 13.7371 7.41955 14.26 8.32605C14.7829 9.23257 14.4726 10.3917 13.5669 10.9151Z" fill="#FF7010"/>
<path d="M5.36172 21.3005C4.57266 20.941 3.99141 20.2539 3.7668 19.4156C3.54219 18.5771 3.70234 17.6909 4.20625 16.9843C4.62578 16.3957 4.62578 15.6047 4.20625 15.0163C3.70234 14.3095 3.54219 13.4233 3.7668 12.5848C3.99141 11.7465 4.57266 11.0594 5.36172 10.6997C5.4959 10.6385 5.61582 10.5578 5.72637 10.4676L2.35801 8.521C1.17388 10.7551 0.5 13.2999 0.5 16.0002C0.5 18.7005 1.17388 21.2453 2.35801 23.4794L5.72647 21.5328C5.61587 21.4425 5.4959 21.3618 5.36172 21.3005Z" fill="#FF7010"/>
<path d="M4.92584 19.1043C5.05709 19.5948 5.39732 19.9969 5.85943 20.2073C6.22872 20.3758 6.54351 20.6205 6.80372 20.91L15.3002 16L6.80367 11.0898C6.54351 11.3793 6.22867 11.624 5.85943 11.7924C5.39732 12.003 5.05709 12.4051 4.92584 12.8956C4.79459 13.3861 4.88834 13.9048 5.18287 14.3183C5.90044 15.3241 5.90044 16.6758 5.18287 17.6818C4.88834 18.0951 4.79459 18.6138 4.92584 19.1043ZM8.74048 14.1046C9.78624 14.1046 10.634 14.9532 10.634 16C10.634 17.0467 9.78624 17.8953 8.74048 17.8953C7.69468 17.8953 6.84693 17.0467 6.84693 16C6.84693 14.9532 7.69468 14.1046 8.74048 14.1046Z" fill="#FF7010"/>
<path d="M2.96057 7.48218L6.32639 9.42727C6.34924 9.28622 6.35906 9.14184 6.34495 8.9949C6.26174 8.13119 6.56526 7.28371 7.17854 6.66984C7.79182 6.05598 8.63713 5.75237 9.50198 5.83506C10.2172 5.90564 10.9051 5.50897 11.2043 4.85132C11.5641 4.06111 12.2508 3.47931 13.0883 3.25468C13.9262 3.03005 14.811 3.19017 15.5168 3.69436C15.6368 3.78003 15.7666 3.84364 15.9 3.89438V0C10.4533 0.202316 5.69607 3.14139 2.96057 7.48218Z" fill="#FF7010"/>
<path d="M7.5394 23.12C7.49058 23.6257 7.66831 24.1217 8.02729 24.4808C8.38589 24.84 8.88511 25.0163 9.38628 24.9692C10.6191 24.8495 11.7851 25.5267 12.2964 26.6509C12.507 27.113 12.9085 27.4536 13.3988 27.5851C13.8882 27.7165 14.407 27.6229 14.8199 27.3277C15.1502 27.0918 15.5194 26.9412 15.9 26.8604V17.04L7.40356 21.9501C7.52397 22.3203 7.57832 22.7156 7.5394 23.12ZM10.9803 21.7786C11.5032 20.8721 12.6613 20.5615 13.5669 21.0849C14.4726 21.6083 14.7829 22.7675 14.26 23.674C13.7371 24.5805 12.5791 24.8911 11.6734 24.3677C10.7677 23.8443 10.4575 22.6852 10.9803 21.7786Z" fill="#FF7010"/>
</g>
<path d="M30.4174 26.2613C29.7074 24.896 29.63 23.292 30.2074 21.8607C30.8347 20.3027 31.1667 18.506 31.1667 16.6667C31.1667 13.522 30.2894 11.5913 29.44 9.724C28.6807 8.05333 27.968 6.45667 27.856 3.99533C28.2134 3.98267 28.5 3.69333 28.5 3.33333C28.5 2.96533 28.202 2.66667 27.8334 2.66667V0.666667C27.8334 0.298667 27.5354 0 27.1667 0H21.8334C21.4647 0 21.1667 0.298667 21.1667 0.666667V2.66667C20.798 2.66667 20.5 2.96533 20.5 3.33333C20.5 3.69333 20.7867 3.98267 21.144 3.99533C21.032 6.45667 20.3194 8.054 19.56 9.724C18.7114 11.5913 17.8334 13.522 17.8334 16.6667C17.8334 18.506 18.1654 20.3027 18.7927 21.8613C19.3694 23.2933 19.2927 24.8973 18.5827 26.262C18.0927 27.2033 17.8334 28.2653 17.8334 29.3333C17.8334 30.0827 17.9634 30.83 18.22 31.5553C18.314 31.822 18.566 32 18.848 32H30.1507C30.4334 32 30.6847 31.822 30.7787 31.556C31.0367 30.8313 31.1667 30.0833 31.1667 29.3333C31.1667 28.2653 30.908 27.2033 30.4174 26.2613C30.4174 26.262 30.4174 26.262 30.4174 26.2613ZM26.514 4C26.5334 4.47467 26.58 4.91133 26.6374 5.33333H22.3634C22.4207 4.91133 22.4674 4.47467 22.4867 4H26.514ZM28.9654 12C29.1294 12.424 29.2774 12.8653 29.4047 13.3333H19.5954C19.7227 12.8653 19.8707 12.424 20.0347 12H28.9654ZM29.4074 20C29.2874 20.46 29.15 20.9087 28.9807 21.3333H20.02C19.8507 20.9087 19.7134 20.46 19.5934 20H29.4074Z" fill="#FF7010"/>
</g>
<defs>
<clipPath id="clip0_12334_13500">
<rect width="32" height="32" fill="white" transform="translate(0.5)"/>
</clipPath>
</defs>
</svg>

<svg width="33" height="32" fill="none" xmlns="http://www.w3.org/2000/svg"><g clip-path="url(#a)"><mask id="b" style="mask-type:alpha" maskUnits="userSpaceOnUse" x="0" y="0" width="17" height="32"><path fill="#C4C4C4" d="M.5 0h16.4v32H.5z"/></mask><g mask="url(#b)" fill="#FF7010"><path d="M13.84 28.845a2.9 2.9 0 0 1-2.636-1.696 1.695 1.695 0 0 0-1.702-.984 2.884 2.884 0 0 1-2.323-.835 2.887 2.887 0 0 1-.834-2.325 1.687 1.687 0 0 0-.019-.432l-3.365 1.945c2.735 4.34 7.492 7.28 12.939 7.482v-3.894a1.68 1.68 0 0 0-.383.2 2.881 2.881 0 0 1-1.677.539ZM13.399 4.415c-.49.131-.892.472-1.103.934a2.897 2.897 0 0 1-2.91 1.682c-.505-.049-1 .129-1.359.488-.359.36-.536.855-.488 1.36.04.405-.015.8-.135 1.17L15.9 14.96V5.14c-.38-.081-.75-.232-1.08-.468a1.687 1.687 0 0 0-1.421-.257Zm.168 6.5a1.893 1.893 0 0 1-2.587-.694 1.896 1.896 0 0 1 .693-2.589 1.893 1.893 0 0 1 2.587.694 1.896 1.896 0 0 1-.693 2.59ZM5.362 21.3a2.884 2.884 0 0 1-1.595-1.884 2.887 2.887 0 0 1 .44-2.432c.419-.588.419-1.38 0-1.968a2.888 2.888 0 0 1-.44-2.431A2.885 2.885 0 0 1 5.362 10.7c.134-.061.254-.142.364-.232L2.358 8.52A15.924 15.924 0 0 0 .5 16.001c0 2.7.674 5.244 1.858 7.478l3.368-1.946c-.11-.09-.23-.171-.364-.233Z"/><path d="M4.926 19.104c.131.49.471.893.933 1.103.37.169.685.413.945.703L15.3 16l-8.496-4.91c-.26.29-.575.534-.945.702-.462.211-.802.613-.933 1.104-.131.49-.038 1.009.257 1.422a2.897 2.897 0 0 1 0 3.364 1.69 1.69 0 0 0-.257 1.422Zm3.814-5a1.894 1.894 0 1 1-.001 3.79 1.894 1.894 0 0 1 .001-3.79ZM2.96 7.482l3.366 1.945c.023-.14.033-.285.019-.432a2.887 2.887 0 0 1 .834-2.325 2.882 2.882 0 0 1 2.323-.835 1.694 1.694 0 0 0 1.702-.984 2.885 2.885 0 0 1 1.884-1.596 2.88 2.88 0 0 1 2.429.44c.12.085.25.149.383.2V0C10.453.202 5.696 3.141 2.96 7.482ZM7.54 23.12a1.695 1.695 0 0 0 1.847 1.85 2.888 2.888 0 0 1 2.91 1.68c.21.463.611.804 1.102.935.49.131 1.008.038 1.42-.257.331-.236.7-.387 1.081-.468v-9.82l-8.496 4.91c.12.37.174.766.135 1.17Zm3.44-1.341a1.893 1.893 0 0 1 2.587-.694 1.896 1.896 0 0 1 .693 2.589 1.893 1.893 0 0 1-2.587.694 1.896 1.896 0 0 1-.693-2.59Z"/></g><path d="M30.417 26.261a5.26 5.26 0 0 1-.21-4.4c.628-1.558.96-3.355.96-5.194 0-3.145-.878-5.076-1.727-6.943-.76-1.67-1.472-3.267-1.584-5.729a.664.664 0 0 0-.023-1.328v-2A.666.666 0 0 0 27.167 0h-5.334a.666.666 0 0 0-.666.667v2a.664.664 0 0 0-.023 1.329c-.112 2.46-.825 4.058-1.584 5.728-.849 1.867-1.727 3.798-1.727 6.943 0 1.839.332 3.636.96 5.194a5.263 5.263 0 0 1-.21 4.401 6.678 6.678 0 0 0-.75 3.071c0 .75.13 1.497.387 2.222a.666.666 0 0 0 .628.445h11.303a.666.666 0 0 0 .628-.444 6.613 6.613 0 0 0-.362-5.295c0 .001 0 .001 0 0ZM26.514 4c.02.475.066.911.123 1.333h-4.274c.058-.422.104-.858.124-1.333h4.027Zm2.451 8c.164.424.312.865.44 1.333h-9.81c.128-.468.276-.909.44-1.333h8.93Zm.442 8c-.12.46-.257.909-.426 1.333H20.02c-.17-.424-.307-.873-.427-1.333h9.814Z" fill="#FF7010"/></g><defs><clipPath id="a"><path fill="#fff" transform="translate(.5)" d="M0 0h32v32H0z"/></clipPath></defs></svg>
